X:1
T:Title
L:1/8
Q:1/4=108
M:6/8
K:C
V:1 treble nm="Church Organ, Staff"
V:1
 BBc d e2 | d B2 A G2 | G A2 AAB | c B2- B B2 | BBc d e2 | d B2 A G2 | GAB c B2 | A G2- G G2 | %8
w: By~Edwin~Lemare * * * *||||||||
 AAB c B2 | G d2 A B2 | Ged BAG | E A2- A A2 | DBc d e2 | d B2 A G2 | GAB c B2 | A G2- G G2 |] %16
w: ||||||||

